src/images_karasa_jaga_svg/sd/cmd/transition-honeycomb.svg

<svg height="32" viewBox="0 0 32 32" width="32" xmlns="http://www.w3.org/2000/svg" xmlns:xlink="http://www.w3.org/1999/xlink"><linearGradient id="a" gradientUnits="userSpaceOnUse" x1="28" x2="28" y1="57.5" y2="0"><stop offset="0" stop-color="#ffea00"/><stop offset="1" stop-color="#ffa000"/></linearGradient><radialGradient id="b" cx="100.88867" cy="155.99673" gradientTransform="matrix(4.3885832 0 0 3.8888885 -340.15832 -521.43169)" gradientUnits="userSpaceOnUse" r="40"><stop offset="0" stop-color="#fff"/><stop offset=".11366145" stop-color="#bdbebf"/><stop offset=".20296688" stop-color="#ececec"/><stop offset=".2363" stop-color="#fafafa"/><stop offset=".38818121" stop-color="#fff"/><stop offset=".5313" stop-color="#fafafa"/><stop offset=".8449" stop-color="#ebecec"/><stop offset="1" stop-color="#e1e2e3"/></radialGradient><filter id="c" color-interpolation-filters="sRGB" height="1.065877" width="1.055085" x="-.027543" y="-.032939"><feGaussianBlur stdDeviation="1.3760599"/></filter><linearGradient id="d" gradientUnits="userSpaceOnUse" x1="67.903954" x2="67.903954" y1="31.783545" y2="-32.216457"><stop offset="0" stop-color="#e9eaea"/><stop offset=".5" stop-color="#fff"/><stop offset="1" stop-color="#fefefe"/></linearGradient><radialGradient id="e" cx="15.803572" cy="27.911764" gradientTransform="matrix(1.2444444 .00000003 -.00000002 .75555556 -3.666666 3.911111)" gradientUnits="userSpaceOnUse" r="11.25" xlink:href="#a"/><filter id="f" height="1.294962" width="1.106002" x="-.053001" y="-.147481"><feGaussianBlur stdDeviation="1.4133574"/></filter><filter id="g" color-interpolation-filters="sRGB" height="1.157082" width="1.097082" x="-.048541" y="-.078541"><feGaussianBlur stdDeviation="1.5708204"/></filter><radialGradient id="h" cx="67.903953" cy="-.216458" gradientTransform="matrix(1 0 0 .65183454 0 -.075363)" gradientUnits="userSpaceOnUse" r="42.602785"><stop offset="0" stop-color="#fff"/><stop offset=".75112468" stop-color="#e7e7e7" stop-opacity=".498039"/><stop offset="1" stop-color="#fff" stop-opacity="0"/></radialGradient><linearGradient id="i" gradientUnits="userSpaceOnUse" x1="8" x2="7.953124" y1="4" y2="16.986109"><stop offset="0" stop-color="#fff"/><stop offset="1" stop-color="#fff" stop-opacity="0"/></linearGradient><radialGradient id="j" cx="17.5" cy="21.901463" gradientTransform="matrix(1.7699931 .11799917 -.11219019 1.6828581 -11.01775 -13.922037)" gradientUnits="userSpaceOnUse" r="4.237305" xlink:href="#a"/><g transform="matrix(.25 0 0 .25 -.975989 16.054114)"><ellipse cx="67.903954" cy="-.216456" fill="url(#h)" filter="url(#g)" rx="38.832817" ry="24"/><path d="m91.808594-48.839841h-.002l-76.810547.240235c-4.577647.0022-8.2824795 3.747105-8.2832034 8.318359l-.0129652 81.874107c-.0007241 4.572585 3.7145276 8.287109 8.2871096 8.287109.0013.000002.0026.000002.0039 0l105.902392-.263671c4.57258 0 8.28711-3.714526 8.28711-8.28711l-.002-13.640625.013-47.90536.002-20.328125c0-4.572582-3.70762-8.318359-8.28711-8.318359z" fill="#141414" filter="url(#c)"/><path d="m14.625-48c-3.66801.012514-6.625 2.956969-6.625 6.625l-.096045 33.158544.08308 49.496816c.00616 3.668025 2.95698 6.634065 6.625 6.625l49.29192-.121816 57.364325-.141515c3.66802-.009 6.62443-2.95697 6.625-6.625l.013-82.65536c.00058-3.668031-2.95697-6.625-6.625-6.625h-9.375-8-12.096075z" fill="#fff"/><path d="m115.69727-44.224609-15.58008.0078-85.857424.255859c-1.278069.0038-2.220507.943724-2.220704 2.210938l-.01296 83.40536c-.000197 1.267223.944877 2.214022 2.203126 2.210938l107.406242-.26366c1.27618-.0031 2.21856-.943712 2.21875-2.210938l.013-83.40536c.0002-1.267225-.94371-2.210937-2.21094-2.210937z" fill="url(#b)"/><rect fill="#8c8c8c" height="72" rx="3.999999" ry="4.000001" width="104" x="15.903955" y="-36.216457"/><rect fill="url(#d)" height="68" rx="3.999999" ry="4.000001" width="100" x="17.903955" y="-34.216457"/><path d="m18.539062 7.5-1.083984.9628906-2.191406-.4492187-1.671875 1.484375-2.191406-.4492188-1.6738285 1.4843749-2.1894531-.449219-1.6738282 1.484375-2.1894531-.449218-.1738281.154297v3.46289l1.2089844.246094.5175781 1.933594-1.6738281 1.482422.5175781 1.93164 2.1914063.449219.5175781 1.931641 2.1894531.447265.359375 1.341797h3.521484l.501953-.445312 2.169922.445312h.023438l1.669922-1.480469-.517578-1.93164 1.671875-1.482422-.517579-1.931641 1.673829-1.484375 2.191406.449219 1.671875-1.484375 2.191406.447265 1.671875-1.482421-.517578-1.931641 1.673828-1.484375-.517578-1.9316406-2.191406-.4472656-.220703-.8242188zm-8.294921 4.964844 2.191406.447265.517578 1.931641-1.671875 1.484375-2.1914062-.449219-.5175782-1.93164z" fill="url(#e)" transform="matrix(4 0 0 4 3.903955 -64.216456)"/><path d="m16 10.242188v1.99414a6 6 0 0 1 3.289062.945313 6 6 0 0 1 1.816407 8.289062l-1.683594-1.078125.908203 4.142578 4.144531-.908203-1.683593-1.078125a8 8 0 0 0 -2.423828-11.050781 8 8 0 0 0 -4.367188-1.255859z" fill="url(#j)" transform="matrix(4 0 0 4 3.903955 -64.216456)"/><path d="m18.523438 7.5136719-1.06836.9492187-2.191406-.4492187-1.671875 1.484375-2.191406-.4492188-1.6738285 1.4843749-2.1894531-.449219-1.6738282 1.484375-2.1894531-.449218-.0019531.001953.1757812 3.685547.8613282.175781.5175781 1.933594-1.2246094 1.083984c7.5489769.833037 8.5893479 1.818447 14.2148439 1.041016l-.365235-1.367188 1.673829-1.484375 2.191406.449219 1.671875-1.484375 2.191406.447265 1.671875-1.482421-.517578-1.931641 1.673828-1.484375-.517578-1.9316406-2.191406-.4472656-.216797-.8105469zm-8.279297 4.9511721 2.191406.447265.517578 1.931641-1.671875 1.484375-2.1914062-.449219-.5175782-1.93164z" fill="url(#i)" filter="url(#f)" transform="matrix(4 0 0 4 3.903955 -64.216456)"/></g></svg>

<?xml version="1.0" encoding="UTF-8" standalone="no"?>
<!-- Created with Inkscape (http://www.inkscape.org/) -->

<svg
   xmlns:dc="http://purl.org/dc/elements/1.1/"
   xmlns:cc="http://creativecommons.org/ns#"
   xmlns:rdf="http://www.w3.org/1999/02/22-rdf-syntax-ns#"
   xmlns:svg="http://www.w3.org/2000/svg"
   xmlns="http://www.w3.org/2000/svg"
   xmlns:xlink="http://www.w3.org/1999/xlink"
   xmlns:sodipodi="http://sodipodi.sourceforge.net/DTD/sodipodi-0.dtd"
   xmlns:inkscape="http://www.inkscape.org/namespaces/inkscape"
   version="1.1"
   id="svg2"
   width="32"
   height="32"
   viewBox="0 0 32 32"
   sodipodi:docname="transition-honeycomb.svg"
   inkscape:version="0.92.3 (unknown)"
   inkscape:export-filename="/home/rizmut/Dokumen/Rizmut/Github/libreoffice-style-karasa-jaga/build/images_karasa_jaga/sd/cmd/transition-honeycomb.png"
   inkscape:export-xdpi="96"
   inkscape:export-ydpi="96">
  <metadata
     id="metadata8">
    <rdf:RDF>
      <cc:Work
         rdf:about="">
        <dc:format>image/svg+xml</dc:format>
        <dc:type
           rdf:resource="http://purl.org/dc/dcmitype/StillImage" />
        <dc:title />
      </cc:Work>
    </rdf:RDF>
  </metadata>
  <defs
     id="defs6">
    <linearGradient
       inkscape:collect="always"
       id="linearGradient1205">
      <stop
         style="stop-color:#ffffff;stop-opacity:1"
         offset="0"
         id="stop1201" />
      <stop
         id="stop1209"
         offset="0.75112468"
         style="stop-color:#e7e7e7;stop-opacity:0.49803922" />
      <stop
         style="stop-color:#ffffff;stop-opacity:0"
         offset="1"
         id="stop1203" />
    </linearGradient>
    <linearGradient
       inkscape:collect="always"
       id="linearGradient2334">
      <stop
         style="stop-color:#e9eaea;stop-opacity:1;"
         offset="0"
         id="stop2330" />
      <stop
         id="stop2338"
         offset="0.5"
         style="stop-color:#ffffff;stop-opacity:1" />
      <stop
         style="stop-color:#fefefe;stop-opacity:1"
         offset="1"
         id="stop2332" />
    </linearGradient>
    <linearGradient
       y2="0"
       x2="28"
       y1="57.5"
       x1="28"
       gradientUnits="userSpaceOnUse"
       id="linearGradient15967">
      <stop
         id="stop15969"
         style="stop-color:white;stop-opacity:1;"
         offset="0" />
      <stop
         id="stop15971"
         style="stop-color:white;stop-opacity:0;"
         offset="1" />
    </linearGradient>
    <linearGradient
       y2="0"
       x2="28"
       y1="57.5"
       x1="28"
       gradientUnits="userSpaceOnUse"
       id="linearGradient3287">
      <stop
         id="stop3289"
         style="stop-color:#FFEA00"
         offset="0" />
      <stop
         id="stop3291"
         style="stop-color:#ffa000;stop-opacity:1;"
         offset="1" />
    </linearGradient>
    <radialGradient
       inkscape:collect="always"
       xlink:href="#XMLID_8_"
       id="radialGradient3726"
       gradientUnits="userSpaceOnUse"
       gradientTransform="matrix(4.3885832,0,0,3.8888885,-340.15832,-521.43169)"
       cx="100.88867"
       cy="155.99673"
       fx="100.88867"
       fy="155.99673"
       r="40" />
    <radialGradient
       id="XMLID_8_"
       cx="102"
       cy="112.3047"
       r="139.55859"
       gradientUnits="userSpaceOnUse">
      <stop
         offset="0"
         style="stop-color:#ffffff;stop-opacity:1;"
         id="stop37" />
      <stop
         offset="0.11366145"
         style="stop-color:#bdbebf;stop-opacity:1;"
         id="stop41" />
      <stop
         offset="0.20296688"
         style="stop-color:#ECECEC"
         id="stop47" />
      <stop
         offset="0.2363"
         style="stop-color:#FAFAFA"
         id="stop49" />
      <stop
         offset="0.38818121"
         style="stop-color:#FFFFFF"
         id="stop51" />
      <stop
         offset="0.5313"
         style="stop-color:#FAFAFA"
         id="stop53" />
      <stop
         offset="0.8449"
         style="stop-color:#EBECEC"
         id="stop55" />
      <stop
         offset="1"
         style="stop-color:#E1E2E3"
         id="stop57" />
    </radialGradient>
    <clipPath
       clipPathUnits="userSpaceOnUse"
       id="clipPath3826">
      <path
         inkscape:connector-curvature="0"
         style="fill:none;fill-opacity:0.75;fill-rule:evenodd;stroke:#000000;stroke-width:1px;stroke-linecap:butt;stroke-linejoin:miter;stroke-opacity:1"
         d="M 39.881057,36 40,80 H 96 V 36 Z"
         id="path3828"
         sodipodi:nodetypes="ccccc" />
    </clipPath>
    <filter
       inkscape:collect="always"
       style="color-interpolation-filters:sRGB"
       id="filter939"
       x="-0.027542715"
       width="1.0550854"
       y="-0.032938699"
       height="1.0658774">
      <feGaussianBlur
         inkscape:collect="always"
         stdDeviation="1.3760599"
         id="feGaussianBlur941" />
    </filter>
    <linearGradient
       inkscape:collect="always"
       xlink:href="#linearGradient2334"
       id="linearGradient2336"
       x1="67.903954"
       y1="31.783545"
       x2="67.903954"
       y2="-32.216457"
       gradientUnits="userSpaceOnUse" />
    <radialGradient
       inkscape:collect="always"
       xlink:href="#linearGradient3287"
       id="radialGradient901"
       cx="-125.21604"
       cy="-19.496462"
       fx="-125.21604"
       fy="-19.496462"
       r="34.560001"
       gradientTransform="matrix(1,0,0,1.7152778,0,13.945385)"
       gradientUnits="userSpaceOnUse" />
    <radialGradient
       inkscape:collect="always"
       xlink:href="#linearGradient3287"
       id="radialGradient1049"
       cx="15.803572"
       cy="27.911764"
       fx="15.803572"
       fy="27.911764"
       r="11.25"
       gradientTransform="matrix(1.2444444,2.7636806e-8,-1.677949e-8,0.75555556,-3.6666663,3.9111107)"
       gradientUnits="userSpaceOnUse" />
    <filter
       inkscape:collect="always"
       id="filter3176"
       x="-0.053000905"
       width="1.1060019"
       y="-0.14748077"
       height="1.2949615">
      <feGaussianBlur
         inkscape:collect="always"
         stdDeviation="1.4133574"
         id="feGaussianBlur3178" />
    </filter>
    <filter
       inkscape:collect="always"
       style="color-interpolation-filters:sRGB"
       id="filter1197"
       x="-0.048541019"
       width="1.097082"
       y="-0.078541021"
       height="1.157082">
      <feGaussianBlur
         inkscape:collect="always"
         stdDeviation="1.5708204"
         id="feGaussianBlur1199" />
    </filter>
    <radialGradient
       inkscape:collect="always"
       xlink:href="#linearGradient1205"
       id="radialGradient1207"
       cx="67.903953"
       cy="-0.21645778"
       fx="67.903953"
       fy="-0.21645778"
       r="42.602785"
       gradientTransform="matrix(1,0,0,0.65183454,0,-0.07536312)"
       gradientUnits="userSpaceOnUse" />
    <radialGradient
       inkscape:collect="always"
       xlink:href="#linearGradient1205"
       id="radialGradient1242"
       gradientUnits="userSpaceOnUse"
       gradientTransform="matrix(1,0,0,0.65183454,0,-0.07536312)"
       cx="67.903953"
       cy="-0.21645778"
       fx="67.903953"
       fy="-0.21645778"
       r="42.602785" />
    <linearGradient
       inkscape:collect="always"
       xlink:href="#linearGradient15967"
       id="linearGradient2283"
       gradientUnits="userSpaceOnUse"
       gradientTransform="matrix(0.25,0,0,0.25,-6.06974,-9.5222785)"
       x1="56.278961"
       y1="54.089115"
       x2="56.091454"
       y2="106.03355" />
    <radialGradient
       inkscape:collect="always"
       xlink:href="#linearGradient3287"
       id="radialGradient2294"
       cx="17.5"
       cy="21.901463"
       fx="17.5"
       fy="21.901463"
       r="4.2373047"
       gradientTransform="matrix(1.7699931,0.11799917,-0.11219019,1.6828581,-11.01775,-13.922037)"
       gradientUnits="userSpaceOnUse" />
  </defs>
  <sodipodi:namedview
     pagecolor="#ffffff"
     bordercolor="#666666"
     borderopacity="1"
     objecttolerance="10"
     gridtolerance="10"
     guidetolerance="10"
     inkscape:pageopacity="0"
     inkscape:pageshadow="2"
     inkscape:window-width="1366"
     inkscape:window-height="706"
     id="namedview4"
     showgrid="true"
     inkscape:snap-page="true"
     inkscape:snap-global="true"
     inkscape:zoom="16"
     inkscape:cx="2.8600624"
     inkscape:cy="20.57198"
     inkscape:window-x="0"
     inkscape:window-y="0"
     inkscape:window-maximized="1"
     inkscape:current-layer="g2568"
     inkscape:snap-smooth-nodes="true"
     inkscape:snap-grids="true">
    <inkscape:grid
       type="xygrid"
       id="grid817"
       spacingx="0.5"
       spacingy="0.5"
       empspacing="2" />
  </sodipodi:namedview>
  <g
     id="g915"
     transform="matrix(0.25,0,0,0.25,-0.97598871,16.054114)">
    <g
       id="g2568">
      <ellipse
         ry="24"
         rx="38.832817"
         cy="-0.216456"
         cx="67.903954"
         id="ellipse1211"
         style="opacity:1;fill:url(#radialGradient1207);fill-opacity:1;stroke:none;stroke-width:4;stroke-linecap:square;stroke-linejoin:round;stroke-miterlimit:4;stroke-dasharray:none;stroke-dashoffset:0;stroke-opacity:1;filter:url(#filter1197)" />
      <path
         sodipodi:nodetypes="cccssccccccccc"
         inkscape:connector-curvature="0"
         id="rect3077"
         d="m 91.808594,-48.839841 h -0.002 l -76.810547,0.240235 c -4.577647,0.0022 -8.2824795,3.747105 -8.2832034,8.318359 L 6.6998784,41.59286 c -7.241e-4,4.572585 3.7145276,8.287109 8.2871096,8.287109 0.0013,2e-6 0.0026,2e-6 0.0039,0 L 120.89328,49.616298 c 4.57258,0 8.28711,-3.714526 8.28711,-8.28711 l -0.002,-13.640625 0.013,-47.90536 0.002,-20.328125 c 0,-4.572582 -3.70762,-8.318359 -8.28711,-8.318359 z"
         style="fill:#141414;fill-opacity:1;stroke:none;stroke-width:0.69999999;stroke-linecap:round;stroke-linejoin:round;stroke-miterlimit:4;stroke-dasharray:none;stroke-dashoffset:1.08780003;stroke-opacity:1;filter:url(#filter939)" />
      <path
         sodipodi:nodetypes="sscsscsssscccs"
         inkscape:connector-curvature="0"
         style="fill:#ffffff;fill-opacity:1;stroke:none;stroke-width:0.69999999;stroke-linecap:round;stroke-linejoin:round;stroke-miterlimit:4;stroke-dasharray:none;stroke-dashoffset:1.08780003;stroke-opacity:1"
         d="M 14.625,-48 C 10.95699,-47.987486 8,-45.043031 8,-41.375 L 7.903955,-8.216456 7.987035,41.28036 c 0.00616,3.668025 2.95698,6.634065 6.625,6.625 l 49.29192,-0.121816 57.364325,-0.141515 c 3.66802,-0.009 6.62443,-2.95697 6.625,-6.625 l 0.013,-82.65536 c 5.8e-4,-3.668031 -2.95697,-6.625 -6.625,-6.625 h -9.375 -8 -12.096075 z"
         id="rect2484" />
      <path
         sodipodi:nodetypes="cccssccsssc"
         inkscape:connector-curvature="0"
         id="rect3135"
         d="m 115.69727,-44.224609 -15.58008,0.0078 -85.857424,0.255859 c -1.278069,0.0038 -2.220507,0.943724 -2.220704,2.210938 l -0.01296,83.40536 c -1.97e-4,1.267223 0.944877,2.214022 2.203126,2.210938 L 121.63547,43.602626 c 1.27618,-0.0031 2.21856,-0.943712 2.21875,-2.210938 l 0.013,-83.40536 c 2e-4,-1.267225 -0.94371,-2.210937 -2.21094,-2.210937 z"
         style="fill:url(#radialGradient3726);fill-opacity:1;stroke:none;stroke-width:0.69999999;stroke-linecap:round;stroke-linejoin:round;stroke-miterlimit:4;stroke-dasharray:none;stroke-dashoffset:1.08780003;stroke-opacity:1" />
      <rect
         rx="3.9999988"
         ry="4.0000014"
         y="-36.216457"
         x="15.903955"
         height="72"
         width="104"
         id="rect2326"
         style="opacity:1;fill:#8c8c8c;fill-opacity:1;stroke:none;stroke-width:4;stroke-linecap:square;stroke-linejoin:round;stroke-miterlimit:4;stroke-dasharray:none;stroke-dashoffset:0;stroke-opacity:1" />
      <rect
         style="opacity:1;fill:url(#linearGradient2336);fill-opacity:1;stroke:none;stroke-width:4;stroke-linecap:square;stroke-linejoin:round;stroke-miterlimit:4;stroke-dasharray:none;stroke-dashoffset:0;stroke-opacity:1"
         id="rect2328"
         width="100"
         height="68"
         x="17.903955"
         y="-34.216457"
         ry="4.0000014"
         rx="3.9999988" />
      <path
         style="opacity:1;fill:url(#radialGradient1049);fill-opacity:1;stroke:none;stroke-width:1;stroke-linecap:square;stroke-linejoin:round;stroke-miterlimit:4;stroke-dasharray:none;stroke-dashoffset:0;stroke-opacity:1"
         d="M 18.539062 7.5 L 17.455078 8.4628906 L 15.263672 8.0136719 L 13.591797 9.4980469 L 11.400391 9.0488281 L 9.7265625 10.533203 L 7.5371094 10.083984 L 5.8632812 11.568359 L 3.6738281 11.119141 L 3.5 11.273438 L 3.5 14.736328 L 4.7089844 14.982422 L 5.2265625 16.916016 L 3.5527344 18.398438 L 4.0703125 20.330078 L 6.2617188 20.779297 L 6.7792969 22.710938 L 8.96875 23.158203 L 9.328125 24.5 L 12.849609 24.5 L 13.351562 24.054688 L 15.521484 24.5 L 15.544922 24.5 L 17.214844 23.019531 L 16.697266 21.087891 L 18.369141 19.605469 L 17.851562 17.673828 L 19.525391 16.189453 L 21.716797 16.638672 L 23.388672 15.154297 L 25.580078 15.601562 L 27.251953 14.119141 L 26.734375 12.1875 L 28.408203 10.703125 L 27.890625 8.7714844 L 25.699219 8.3242188 L 25.478516 7.5 L 18.539062 7.5 z M 10.244141 12.464844 L 12.435547 12.912109 L 12.953125 14.84375 L 11.28125 16.328125 L 9.0898438 15.878906 L 8.5722656 13.947266 L 10.244141 12.464844 z "
         transform="matrix(4,0,0,4,3.9039548,-64.216456)"
         id="rect1027" />
      <path
         style="fill:url(#radialGradient2294);stroke-width:1;fill-opacity:1"
         d="M 16 10.242188 L 16 12.236328 A 6 6 0 0 1 19.289062 13.181641 A 6 6 0 0 1 21.105469 21.470703 L 19.421875 20.392578 L 20.330078 24.535156 L 24.474609 23.626953 L 22.791016 22.548828 A 8 8 0 0 0 20.367188 11.498047 A 8 8 0 0 0 16 10.242188 z "
         transform="matrix(4,0,0,4,3.9039548,-64.216456)"
         id="path52" />
      <path
         style="fill:url(#linearGradient2283);fill-opacity:1;stroke:none;stroke-width:0.175;stroke-linecap:round;stroke-linejoin:round;stroke-miterlimit:4;stroke-dasharray:none;stroke-dashoffset:1.08780003;stroke-opacity:1;filter:url(#filter3176)"
         clip-path="none"
         d="M 18.523438 7.5136719 L 17.455078 8.4628906 L 15.263672 8.0136719 L 13.591797 9.4980469 L 11.400391 9.0488281 L 9.7265625 10.533203 L 7.5371094 10.083984 L 5.8632812 11.568359 L 3.6738281 11.119141 L 3.671875 11.121094 L 3.8476562 14.806641 L 4.7089844 14.982422 L 5.2265625 16.916016 L 4.0019531 18 C 11.55093 18.833037 12.591301 19.818447 18.216797 19.041016 L 17.851562 17.673828 L 19.525391 16.189453 L 21.716797 16.638672 L 23.388672 15.154297 L 25.580078 15.601562 L 27.251953 14.119141 L 26.734375 12.1875 L 28.408203 10.703125 L 27.890625 8.7714844 L 25.699219 8.3242188 L 25.482422 7.5136719 L 18.523438 7.5136719 z M 10.244141 12.464844 L 12.435547 12.912109 L 12.953125 14.84375 L 11.28125 16.328125 L 9.0898438 15.878906 L 8.5722656 13.947266 L 10.244141 12.464844 z "
         transform="matrix(4,0,0,4,3.9039548,-64.216456)"
         id="path2279" />
    </g>
  </g>
</svg>
